X:1
T:Title
%%score { ( 1 3 ) | ( 2 4 ) }
L:1/8
M:4/4
K:E
V:1 treble nm="Grand Piano"
V:3 treble 
V:2 bass 
V:4 bass 
V:1
 z4 z2[Q:1/4=100] EF | G2 G2 A2 G2 | [DF]2 [DB]4 [B,EG][A,DF] | %3
 [G,E]2 [G,CE]2 [A,CF]2[K:bass] [F,B,D]2 | [G,B,E]6[K:treble] [B,EG][B,FA] | %5
 [B,GB]2 [EGB]2 [EAc]2 [B,GB]2 | [B,EG]2 [Ge]4 [Gd][Gc] | B2 B2 c2 ^A2 |[M:3/4] [DB]6 | %9
[M:1/4] [GB][FA] |[M:4/4] GGGG G[GB][FA][EG] | z [DF]3- [DF]2 z2 | z2 [Ac]2 z4 |[M:3/4] G6 | %14
[M:1/4] GA |[M:4/4] z4 z2 c2 |[M:9/8] [EAc]3- [EAc] [EGB]2- [EGB][G,E][^A,EF] | %17
[M:4/4] [B,EG] [EB]3 [EG]2 [DF]2 |[M:3/4] [G,E]6 |] %19
V:2
 z4 z2 [E,G,][E,A,E] | [E,B,E]2 [E,B,E]2 [E,CE]2 [E,B,E]2 | [B,,B,]2 [B,,F,]4 B,,B,, | %3
 C,2 C,2 A,,2 B,,2 | E,6 E,E, | E,2 E,2 E,2 E,2 | E,2 [C,C]4 [D,^B,][E,C] | %7
 [F,DF]2 [F,B,D]2 [F,^A,E]2 [F,CE]2 |[M:3/4] [B,,B,]6 |[M:1/4] [B,,B,][B,,B,] | %10
[M:4/4] [E,B,E][E,B,E][E,B,E][E,B,E] [E,B,E][E,B,][E,B,][E,B,] | %11
 [B,,B,][B,,B,]B,,B,, B,,B,,[B,,B,][B,,B,] | [B,,B,][B,,B,][B,,B,]B,, B,,2 C,D, |[M:3/4] [E,B,E]6 | %14
[M:1/4] [E,B,E][F,B,D] |[M:4/4] [G,B,E]2 [E,B,]2[K:treble] [B,F]2 .[A,CA]2 | %16
[M:9/8][K:bass] .A,6 z3 |[M:4/4] B,, [B,,G,]3 [B,,B,]2 [B,,A,]2 |[M:3/4] [E,,E,]6 |] %19
V:3
 x8 | x8 | x8 | x6[K:bass] x2 | x6[K:treble] x2 | x8 | x8 | x8 |[M:3/4] x6 |[M:1/4] x2 | %10
[M:4/4] x8 | .[EG]2 B,B, B,B,[DF][EG] | [FA]2 z B, [B,GB]2 [B,FA]2 |[M:3/4] x6 |[M:1/4] x2 | %15
[M:4/4] B2 [Ge]2 d2 z E |[M:9/8] x9 |[M:4/4] x8 |[M:3/4] x6 |] %19
V:4
 x8 | x8 | x8 | x8 | x8 | x8 | x8 | x8 |[M:3/4] x6 |[M:1/4] x2 |[M:4/4] x8 | x8 | x8 |[M:3/4] x6 | %14
[M:1/4] x2 |[M:4/4] x4[K:treble] x4 |[M:9/8][K:bass] A,,>B,,C, D, E,2- E,C,C, |[M:4/4] x8 | %18
[M:3/4] x6 |] %19

